src/images/earn-two.svg

<svg width="44" height="56" viewBox="0 0 44 56" fill="none" xmlns="http://www.w3.org/2000/svg">
<path d="M44 45.618V56H2.5098V47.7416L23.6863 27.6854C25.9346 25.5356 27.451 23.7004 28.2353 22.1798C29.0196 20.6067 29.4118 19.0599 29.4118 17.5393C29.4118 15.3371 28.6536 13.6592 27.1373 12.5056C25.6732 11.2996 23.5033 10.6966 20.6275 10.6966C18.2222 10.6966 16.0523 11.1685 14.1176 12.1124C12.183 13.0037 10.5621 14.367 9.2549 16.2022L0 10.2247C2.14379 7.02622 5.09804 4.53558 8.86275 2.75281C12.6275 0.917602 16.9412 0 21.8039 0C25.8824 0 29.4379 0.681647 32.4706 2.04494C35.5556 3.3558 37.9346 5.24345 39.6078 7.70786C41.3333 10.1198 42.1961 12.9775 42.1961 16.2809C42.1961 19.2697 41.5686 22.0749 40.3137 24.6966C39.0588 27.3184 36.6275 30.3071 33.0196 33.6629L20.3922 45.618H44Z" fill="white"/>
</svg>

<svg width="44" height="56" fill="none" xmlns="http://www.w3.org/2000/svg"><path d="M44 45.618V56H2.51v-8.258l21.176-20.057c2.249-2.15 3.765-3.985 4.55-5.505.784-1.573 1.176-3.12 1.176-4.64 0-2.203-.758-3.88-2.275-5.034-1.464-1.206-3.634-1.81-6.51-1.81-2.405 0-4.575.473-6.51 1.416-1.934.892-3.555 2.255-4.862 4.09L0 10.225c2.144-3.199 5.098-5.69 8.863-7.472C12.627.918 16.94 0 21.803 0c4.08 0 7.635.682 10.668 2.045 3.085 1.31 5.464 3.198 7.137 5.663 1.725 2.412 2.588 5.27 2.588 8.573 0 2.989-.627 5.794-1.882 8.416-1.255 2.621-3.687 5.61-7.294 8.966L20.392 45.618H44z" fill="#fff"/></svg>
